Sweet-Rainbow/icons/distributor-logo-pop-os.svg

<?xml version="1.0" encoding="UTF-8" standalone="no"?>
<!-- Generator: Gravit.io -->

<svg
   xmlns:dc="http://purl.org/dc/elements/1.1/"
   xmlns:cc="http://creativecommons.org/ns#"
   xmlns:rdf="http://www.w3.org/1999/02/22-rdf-syntax-ns#"
   xmlns:svg="http://www.w3.org/2000/svg"
   xmlns="http://www.w3.org/2000/svg"
   xmlns:sodipodi="http://sodipodi.sourceforge.net/DTD/sodipodi-0.dtd"
   xmlns:inkscape="http://www.inkscape.org/namespaces/inkscape"
   style="isolation:isolate"
   viewBox="0 0 36 36"
   width="48"
   height="48"
   version="1.1"
   id="svg9"
   sodipodi:docname="distributor-logo-pop-os.svg"
   inkscape:version="0.92.4 (5da689c313, 2019-01-14)">
  <metadata
     id="metadata15">
    <rdf:RDF>
      <cc:Work
         rdf:about="">
        <dc:format>image/svg+xml</dc:format>
        <dc:type
           rdf:resource="http://purl.org/dc/dcmitype/StillImage" />
        <dc:title></dc:title>
      </cc:Work>
    </rdf:RDF>
  </metadata>
  <defs
     id="defs13" />
  <sodipodi:namedview
     pagecolor="#ffffff"
     bordercolor="#666666"
     borderopacity="1"
     objecttolerance="10"
     gridtolerance="10"
     guidetolerance="10"
     inkscape:pageopacity="0"
     inkscape:pageshadow="2"
     inkscape:window-width="640"
     inkscape:window-height="480"
     id="namedview11"
     showgrid="false"
     inkscape:zoom="29.365243"
     inkscape:cx="25.325443"
     inkscape:cy="32"
     inkscape:current-layer="svg9"
     units="px" />
  <linearGradient
     id="_lgradient_32"
     x1="0"
     y1="0.5"
     x2="1"
     y2="0.5"
     gradientTransform="scale(48)"
     gradientUnits="userSpaceOnUse">
    <stop
       offset="0%"
       stop-opacity="1"
       style="stop-color:rgb(24,208,173)"
       id="stop2" />
    <stop
       offset="90.44964029999998%"
       stop-opacity="1"
       style="stop-color:rgb(7,195,242)"
       id="stop4" />
  </linearGradient>
  <g
     id="g826"
     transform="matrix(0.75000089,0,0,0.75000089,-8.0521947e-5,-5.5001531e-5)">
    <path
       id="path7"
       d="M 15.613,34 H 32.387 C 33.277,34 34,34.672 34,35.5 v 0 C 34,36.328 33.277,37 32.387,37 H 15.613 C 14.723,37 14,36.328 14,35.5 v 0 C 14,34.672 14.723,34 15.613,34 Z m 6.234,-17.168 c -0.374,-1.312 -1.163,-2.581 -2.202,-3.428 -0.208,-0.169 -0.457,-0.381 -0.748,-0.465 -1.911,-0.635 -1.08,2.624 -0.789,3.47 0.291,0.846 1.08,2.624 1.952,3.512 0.208,0.212 0.416,0.381 0.665,0.424 0.25,0.042 0.748,-0.212 0.956,-0.55 0.208,-0.339 0.249,-0.593 0.249,-0.932 0.099,-0.676 0.07,-1.365 -0.083,-2.031 z m 9.088,15.139 c -0.092,0.365 -0.32,0.69 -0.685,0.893 -0.366,0.203 -1.234,0.203 -1.736,-0.163 -0.502,-0.365 -0.594,-0.974 -0.457,-1.461 0.137,-0.487 0.594,-1.015 1.233,-1.177 1.325,-0.365 1.919,0.934 1.645,1.908 z m -1.497,-4.029 c -0.72,-0.292 -0.48,-4.301 0.199,-9.186 0.2,-1.336 0.52,-2.005 0.88,-2.339 0.36,-0.334 1.44,-0.501 2.079,-0.375 0.737,0.114 1.422,0.464 1.96,1.002 0.48,0.459 0.52,0.96 0.36,1.586 -0.16,0.627 -0.72,1.963 -1.16,2.923 l -1.12,2.213 c -2.159,4.009 -2.599,4.427 -3.198,4.176 z m 4.448,13.236 v 0 c 0.999,-0.571 2.279,-0.225 2.856,0.771 v 0 c 0.577,0.996 0.234,2.274 -0.766,2.85 v 0 c -3.887,2.238 -8.32,3.34 -12.794,3.187 -4.057,-0.138 -8.016,-1.307 -11.505,-3.389 v 0 C 10.689,44.005 10.368,42.721 10.96,41.733 v 0 c 0.593,-0.988 1.876,-1.309 2.865,-0.717 v 0 c 2.875,1.727 6.141,2.684 9.499,2.799 3.703,0.126 7.356,-0.783 10.562,-2.637 z m 7.862,-26.022 v 0 c -0.518,-1.032 -0.101,-2.288 0.931,-2.803 v 0 c 1.032,-0.515 2.285,-0.096 2.798,0.936 v 0 c 1.788,3.569 2.645,7.535 2.509,11.529 -0.104,3.045 -0.78,6.039 -2.003,8.817 v 0 c -0.462,1.056 -1.695,1.538 -2.751,1.075 v 0 c -1.056,-0.462 -1.538,-1.695 -1.075,-2.751 v 0 c 1.018,-2.294 1.572,-4.77 1.657,-7.283 0.113,-3.296 -0.6,-6.567 -2.066,-9.52 z M 15.411,6.135 v 0 C 14.374,6.63 13.126,6.19 12.625,5.153 v 0 C 12.125,4.116 12.56,2.867 13.597,2.367 v 0 c 3.492,-1.677 7.341,-2.485 11.221,-2.353 3.733,0.127 7.396,1.119 10.675,2.912 v 0 c 1.013,0.553 1.386,1.824 0.833,2.837 v 0 c -0.553,1.012 -1.824,1.385 -2.837,0.832 v 0 C 30.783,5.114 27.762,4.291 24.676,4.185 21.474,4.076 18.298,4.741 15.411,6.135 Z M 5.19,30.291 v 0 c 0.367,1.09 -0.223,2.273 -1.316,2.639 v 0 C 2.781,33.296 1.596,32.703 1.23,31.608 v 0 C 0.331,28.894 -0.083,26.04 0.014,23.182 0.143,19.407 1.156,15.704 2.992,12.394 v 0 c 0.553,-1.007 1.821,-1.371 2.831,-0.812 v 0 c 1.01,0.559 1.376,1.83 0.817,2.837 v 0 c -1.513,2.736 -2.348,5.787 -2.455,8.905 -0.08,2.368 0.257,4.718 1.005,6.967 z M 41.964,8.836 C 41.924,9.988 40.958,10.89 39.807,10.851 38.656,10.812 37.753,9.845 37.792,8.694 37.831,7.543 38.798,6.64 39.949,6.68 41.1,6.719 42.003,7.685 41.964,8.836 Z M 9.362,37.763 C 9.323,38.914 8.357,39.817 7.206,39.778 6.054,39.738 5.152,38.772 5.191,37.621 5.23,36.47 6.197,35.567 7.348,35.606 c 1.151,0.039 2.054,1.006 2.014,2.157 z m 33.409,1.139 c 0.039,-1.151 -0.864,-2.117 -2.015,-2.157 -1.151,-0.039 -2.117,0.864 -2.157,2.015 -0.039,1.151 0.864,2.118 2.015,2.157 1.151,0.039 2.118,-0.864 2.157,-2.015 z m -16.229,-19.7 c -0.997,2.158 -2.659,3.893 -4.986,4.74 l 1.995,5.29 c 0.374,0.973 0.706,1.989 0.415,2.92 -0.291,0.931 -1.62,1.227 -2.576,0.212 C 19.562,30.375 13.413,17.848 12.956,16.917 12.499,15.986 12,15.224 12,14.293 c 0.042,-1.397 2.161,-2.836 3.199,-3.555 1.039,-0.719 3.075,-1.693 4.861,-1.735 1.787,-0.042 2.535,0.381 3.574,1.058 1.579,1.058 2.7,2.708 3.116,4.613 0.415,1.904 0.291,3.385 -0.208,4.443 z M 10.865,7.776 C 10.904,6.625 10.002,5.658 8.851,5.619 7.699,5.58 6.733,6.483 6.694,7.634 6.654,8.785 7.557,9.751 8.708,9.791 9.86,9.83 10.826,8.927 10.865,7.776 Z"
       style="fill:url(#_lgradient_32);fill-rule:evenodd"
       inkscape:connector-curvature="0" />
  </g>
</svg>

<?xml version="1.0" encoding="UTF-8" standalone="no"?><!-- Generator: Gravit.io --><svg xmlns="http://www.w3.org/2000/svg" xmlns:xlink="http://www.w3.org/1999/xlink" style="isolation:isolate" viewBox="0 0 48 48" width="48pt" height="48pt"><linearGradient id="_lgradient_32" x1="0" y1="0.5" x2="1" y2="0.5" gradientTransform="matrix(48,0,0,48,0,0)" gradientUnits="userSpaceOnUse"><stop offset="0%" stop-opacity="1" style="stop-color:rgb(24,208,173)"/><stop offset="90.44964029999998%" stop-opacity="1" style="stop-color:rgb(7,195,242)"/></linearGradient><path d=" M 15.613 34 L 32.387 34 C 33.277 34 34 34.672 34 35.5 L 34 35.5 C 34 36.328 33.277 37 32.387 37 L 15.613 37 C 14.723 37 14 36.328 14 35.5 L 14 35.5 C 14 34.672 14.723 34 15.613 34 L 15.613 34 L 15.613 34 L 15.613 34 L 15.613 34 L 15.613 34 L 15.613 34 L 15.613 34 L 15.613 34 L 15.613 34 L 15.613 34 Z  M 21.847 16.832 C 21.473 15.52 20.684 14.251 19.645 13.404 C 19.437 13.235 19.188 13.023 18.897 12.939 C 16.986 12.304 17.817 15.563 18.108 16.409 C 18.399 17.255 19.188 19.033 20.06 19.921 C 20.268 20.133 20.476 20.302 20.725 20.345 C 20.975 20.387 21.473 20.133 21.681 19.795 C 21.889 19.456 21.93 19.202 21.93 18.863 C 22.029 18.187 22 17.498 21.847 16.832 L 21.847 16.832 L 21.847 16.832 L 21.847 16.832 L 21.847 16.832 L 21.847 16.832 L 21.847 16.832 L 21.847 16.832 L 21.847 16.832 L 21.847 16.832 L 21.847 16.832 L 21.847 16.832 L 21.847 16.832 Z  M 30.935 31.971 C 30.843 32.336 30.615 32.661 30.25 32.864 C 29.884 33.067 29.016 33.067 28.514 32.701 C 28.012 32.336 27.92 31.727 28.057 31.24 C 28.194 30.753 28.651 30.225 29.29 30.063 C 30.615 29.698 31.209 30.997 30.935 31.971 L 30.935 31.971 L 30.935 31.971 L 30.935 31.971 L 30.935 31.971 L 30.935 31.971 L 30.935 31.971 L 30.935 31.971 L 30.935 31.971 L 30.935 31.971 Z  M 29.438 27.942 C 28.718 27.65 28.958 23.641 29.637 18.756 C 29.837 17.42 30.157 16.751 30.517 16.417 C 30.877 16.083 31.957 15.916 32.596 16.042 C 33.333 16.156 34.018 16.506 34.556 17.044 C 35.036 17.503 35.076 18.004 34.916 18.63 C 34.756 19.257 34.196 20.593 33.756 21.553 L 32.636 23.766 C 30.477 27.775 30.037 28.193 29.438 27.942 L 29.438 27.942 L 29.438 27.942 L 29.438 27.942 L 29.438 27.942 L 29.438 27.942 L 29.438 27.942 L 29.438 27.942 L 29.438 27.942 Z  M 33.886 41.178 L 33.886 41.178 C 34.885 40.607 36.165 40.953 36.742 41.949 L 36.742 41.949 C 37.319 42.945 36.976 44.223 35.976 44.799 L 35.976 44.799 C 32.089 47.037 27.656 48.139 23.182 47.986 C 19.125 47.848 15.166 46.679 11.677 44.597 L 11.677 44.597 C 10.689 44.005 10.368 42.721 10.96 41.733 L 10.96 41.733 C 11.553 40.745 12.836 40.424 13.825 41.016 L 13.825 41.016 C 16.7 42.743 19.966 43.7 23.324 43.815 C 27.027 43.941 30.68 43.032 33.886 41.178 L 33.886 41.178 L 33.886 41.178 L 33.886 41.178 L 33.886 41.178 L 33.886 41.178 L 33.886 41.178 L 33.886 41.178 Z  M 41.748 15.156 L 41.748 15.156 C 41.23 14.124 41.647 12.868 42.679 12.353 L 42.679 12.353 C 43.711 11.838 44.964 12.257 45.477 13.289 L 45.477 13.289 C 47.265 16.858 48.122 20.824 47.986 24.818 C 47.882 27.863 47.206 30.857 45.983 33.635 L 45.983 33.635 C 45.521 34.691 44.288 35.173 43.232 34.71 L 43.232 34.71 C 42.176 34.248 41.694 33.015 42.157 31.959 L 42.157 31.959 C 43.175 29.665 43.729 27.189 43.814 24.676 C 43.927 21.38 43.214 18.109 41.748 15.156 L 41.748 15.156 L 41.748 15.156 L 41.748 15.156 L 41.748 15.156 L 41.748 15.156 L 41.748 15.156 Z  M 15.411 6.135 L 15.411 6.135 C 14.374 6.63 13.126 6.19 12.625 5.153 L 12.625 5.153 C 12.125 4.116 12.56 2.867 13.597 2.367 L 13.597 2.367 C 17.089 0.69 20.938 -0.118 24.818 0.014 C 28.551 0.141 32.214 1.133 35.493 2.926 L 35.493 2.926 C 36.506 3.479 36.879 4.75 36.326 5.763 L 36.326 5.763 C 35.773 6.775 34.502 7.148 33.489 6.595 L 33.489 6.595 C 30.783 5.114 27.762 4.291 24.676 4.185 C 21.474 4.076 18.298 4.741 15.411 6.135 L 15.411 6.135 L 15.411 6.135 L 15.411 6.135 L 15.411 6.135 L 15.411 6.135 Z  M 5.19 30.291 L 5.19 30.291 C 5.557 31.381 4.967 32.564 3.874 32.93 L 3.874 32.93 C 2.781 33.296 1.596 32.703 1.23 31.608 L 1.23 31.608 C 0.331 28.894 -0.083 26.04 0.014 23.182 C 0.143 19.407 1.156 15.704 2.992 12.394 L 2.992 12.394 C 3.545 11.387 4.813 11.023 5.823 11.582 L 5.823 11.582 C 6.833 12.141 7.199 13.412 6.64 14.419 L 6.64 14.419 C 5.127 17.155 4.292 20.206 4.185 23.324 C 4.105 25.692 4.442 28.042 5.19 30.291 L 5.19 30.291 L 5.19 30.291 L 5.19 30.291 L 5.19 30.291 Z  M 41.964 8.836 C 41.924 9.988 40.958 10.89 39.807 10.851 C 38.656 10.812 37.753 9.845 37.792 8.694 C 37.831 7.543 38.798 6.64 39.949 6.68 C 41.1 6.719 42.003 7.685 41.964 8.836 L 41.964 8.836 L 41.964 8.836 L 41.964 8.836 Z  M 9.362 37.763 C 9.323 38.914 8.357 39.817 7.206 39.778 C 6.054 39.738 5.152 38.772 5.191 37.621 C 5.23 36.47 6.197 35.567 7.348 35.606 C 8.499 35.645 9.402 36.612 9.362 37.763 L 9.362 37.763 L 9.362 37.763 Z  M 42.771 38.902 C 42.81 37.751 41.907 36.785 40.756 36.745 C 39.605 36.706 38.639 37.609 38.599 38.76 C 38.56 39.911 39.463 40.878 40.614 40.917 C 41.765 40.956 42.732 40.053 42.771 38.902 L 42.771 38.902 Z  M 26.542 19.202 C 25.545 21.36 23.883 23.095 21.556 23.942 L 23.551 29.232 C 23.925 30.205 24.257 31.221 23.966 32.152 C 23.675 33.083 22.346 33.379 21.39 32.364 C 19.562 30.375 13.413 17.848 12.956 16.917 C 12.499 15.986 12 15.224 12 14.293 C 12.042 12.896 14.161 11.457 15.199 10.738 C 16.238 10.019 18.274 9.045 20.06 9.003 C 21.847 8.961 22.595 9.384 23.634 10.061 C 25.213 11.119 26.334 12.769 26.75 14.674 C 27.165 16.578 27.041 18.059 26.542 19.117 L 26.542 19.202 L 26.542 19.202 L 26.542 19.202 L 26.542 19.202 L 26.542 19.202 L 26.542 19.202 L 26.542 19.202 L 26.542 19.202 L 26.542 19.202 L 26.542 19.202 L 26.542 19.202 L 26.542 19.202 Z  M 10.865 7.776 C 10.904 6.625 10.002 5.658 8.851 5.619 C 7.699 5.58 6.733 6.483 6.694 7.634 C 6.654 8.785 7.557 9.751 8.708 9.791 C 9.86 9.83 10.826 8.927 10.865 7.776 Z " fill-rule="evenodd" fill="url(#_lgradient_32)"/></svg>
